assets/Outbox tray/Flat/outbox_tray_flat.svg

<svg width="32" height="32" viewBox="0 0 32 32" fill="none" xmlns="http://www.w3.org/2000/svg">
<path d="M24.1669 18.5724H8.21115C6.44052 18.5724 5 20.0024 5 21.7824V26.7324C5 28.5024 6.44052 29.9424 8.21115 29.9424H24.1669C25.9375 29.9424 27.378 28.5024 27.378 26.7324V21.7824C27.368 20.0024 25.9375 18.5724 24.1669 18.5724Z" fill="#9B9B9B"/>
<path d="M24.15 9.13245H8.21C6.44 9.13245 5 10.5724 5 12.3424V22.6724C5 24.4424 6.44 25.8824 8.21 25.8824H11.56C11.81 25.8824 12.05 26.0024 12.19 26.2024C13.07 27.4624 14.53 28.2924 16.19 28.2924C17.85 28.2924 19.31 27.4624 20.19 26.2024C20.33 26.0024 20.57 25.8824 20.82 25.8824H24.17C25.94 25.8824 27.38 24.4424 27.38 22.6724V12.3424C27.36 10.5724 25.93 9.13245 24.15 9.13245Z" fill="#E6E6E6"/>
<path d="M22.32 11.6825H10.04C8.68001 11.6825 7.57001 12.7925 7.57001 14.1525V20.9625C7.57001 22.3225 8.68001 23.4325 10.04 23.4325H13.12C13.48 23.4325 13.78 23.6825 13.87 24.0325C14.14 25.0625 15.07 25.8225 16.18 25.8225C17.29 25.8225 18.23 25.0625 18.49 24.0325C18.58 23.6825 18.88 23.4325 19.24 23.4325H22.32C23.68 23.4325 24.79 22.3225 24.79 20.9625V14.1525C24.79 12.7925 23.69 11.6825 22.32 11.6825Z" fill="#00A6ED"/>
<path d="M18.94 15.2225V8.1225C18.94 7.9625 19.07 7.8425 19.22 7.8425H20.2C20.82 7.8425 21.15 7.1025 20.73 6.6425L16.72 2.2325C16.44 1.9225 15.95 1.9225 15.66 2.2325L11.64 6.6425C11.22 7.1025 11.55 7.8425 12.17 7.8425H13.15C13.31 7.8425 13.43 7.9725 13.43 8.1225V15.2225C13.43 15.4825 13.64 15.6925 13.9 15.6925H18.48C18.73 15.6925 18.94 15.4825 18.94 15.2225Z" fill="#F92F60"/>
</svg>

<svg xmlns="http://www.w3.org/2000/svg" width="32" height="32" fill="none"><path fill="#9B9B9B" d="M24.167 18.572H8.21A3.208 3.208 0 0 0 5 21.782v4.95c0 1.77 1.44 3.21 3.211 3.21h15.956c1.77 0 3.211-1.44 3.211-3.21v-4.95a3.214 3.214 0 0 0-3.211-3.21Z"/><path fill="#E6E6E6" d="M24.15 9.132H8.21c-1.77 0-3.21 1.44-3.21 3.21v10.33c0 1.77 1.44 3.21 3.21 3.21h3.35c.25 0 .49.12.63.32a4.87 4.87 0 0 0 4 2.09c1.66 0 3.12-.83 4-2.09.14-.2.38-.32.63-.32h3.35c1.77 0 3.21-1.44 3.21-3.21v-10.33a3.237 3.237 0 0 0-3.23-3.21Z"/><path fill="#00A6ED" d="M22.32 11.682H10.04c-1.36 0-2.47 1.11-2.47 2.47v6.81c0 1.36 1.11 2.47 2.47 2.47h3.08c.36 0 .66.25.75.6.27 1.03 1.2 1.79 2.31 1.79s2.05-.76 2.31-1.79c.09-.35.39-.6.75-.6h3.08c1.36 0 2.47-1.11 2.47-2.47v-6.81c0-1.36-1.1-2.47-2.47-2.47Z"/><path fill="#F92F60" d="M18.94 15.223v-7.1c0-.16.13-.28.28-.28h.98c.62 0 .95-.74.53-1.2l-4.01-4.41a.72.72 0 0 0-1.06 0l-4.02 4.41c-.42.46-.09 1.2.53 1.2h.98c.16 0 .28.13.28.28v7.1c0 .26.21.47.47.47h4.58c.25 0 .46-.21.46-.47Z"/></svg>
